groups/sulfur/thiocyanate.svg

<?xml version='1.0' encoding='iso-8859-1'?>
<svg version='1.1' baseProfile='full'
              xmlns='http://www.w3.org/2000/svg'
                      xmlns:rdkit='http://www.rdkit.org/xml'
                      xmlns:xlink='http://www.w3.org/1999/xlink'
                  xml:space='preserve'
width='256px' height='256px' viewBox='0 0 256 256'>
<!-- END OF HEADER -->
<rect style='opacity:1.0;fill:#FFFFFF;stroke:none' width='256.0' height='256.0' x='0.0' y='0.0'> </rect>
<path class='bond-0 atom-0 atom-1' d='M 210.3,95.2 L 181.5,144.5' style='fill:none;fill-rule:evenodd;stroke:#000000;stroke-width:2.0px;stroke-linecap:butt;stroke-linejoin:miter;stroke-opacity:1' />
<path class='bond-1 atom-1 atom-2' d='M 158.6,158.9 L 99.3,158.7' style='fill:none;fill-rule:evenodd;stroke:#000000;stroke-width:2.0px;stroke-linecap:butt;stroke-linejoin:miter;stroke-opacity:1' />
<path class='bond-2 atom-2 atom-3' d='M 99.3,158.7 L 39.9,158.4' style='fill:none;fill-rule:evenodd;stroke:#000000;stroke-width:2.0px;stroke-linecap:butt;stroke-linejoin:miter;stroke-opacity:1' />
<path class='bond-2 atom-2 atom-3' d='M 99.2,169.7 L 39.8,169.5' style='fill:none;fill-rule:evenodd;stroke:#000000;stroke-width:2.0px;stroke-linecap:butt;stroke-linejoin:miter;stroke-opacity:1' />
<path class='bond-2 atom-2 atom-3' d='M 99.3,147.6 L 39.9,147.3' style='fill:none;fill-rule:evenodd;stroke:#000000;stroke-width:2.0px;stroke-linecap:butt;stroke-linejoin:miter;stroke-opacity:1' />
<path d='M 102.2,158.7 L 99.3,158.7 L 96.3,158.6' style='fill:none;stroke:#000000;stroke-width:2.0px;stroke-linecap:butt;stroke-linejoin:miter;stroke-miterlimit:10;stroke-opacity:1;' />
<path class='atom-1' d='M178.39,76.6196 C176.995,79.0109 180.183,80.8704 181.578,78.4792 C182.973,76.0879 186.161,77.9475 184.766,80.3387 C183.372,82.73 186.56,84.5895 187.955,82.1983 C189.349,79.807 192.538,81.6666 191.143,84.0578 C189.748,86.449 192.937,88.3086 194.331,85.9174 C195.726,83.5261 198.914,85.3857 197.52,87.7769 C196.125,90.1681 199.313,92.0277 200.708,89.6364 C202.103,87.2452 205.291,89.1047 203.896,91.496 C202.502,93.8872 205.69,95.7468 207.085,93.3555 C208.479,90.9643 211.668,92.8238 210.273,95.2151 C208.878,97.6063 212.067,99.4659 213.461,97.0746 C214.856,94.6834 218.044,96.5429 216.65,98.9342 C215.255,101.325 218.443,103.185 219.838,100.794 C221.233,98.4025 224.421,100.262 223.026,102.653 C221.632,105.045 224.82,106.904 226.215,104.513 C227.609,102.122 230.798,103.981 229.403,106.372 C228.008,108.764 231.197,110.623 232.591,108.232 C233.986,105.841 237.174,107.7 235.78,110.091 C234.385,112.483 237.573,114.342 238.968,111.951 C240.363,109.56 243.551,111.419 242.156,113.811' style='fill:none;stroke:#7F7F7F;stroke-width:2.0px;stroke-linecap:butt;stroke-linejoin:miter;stroke-opacity:1' />
<text x='161.1' y='179.0' class='atom-1' style='font-size:40px;font-style:normal;font-weight:normal;fill-opacity:1;stroke:none;font-family:sans-serif;text-anchor:start;fill:#000000' >S</text>
<text x='13.4' y='178.3' class='atom-3' style='font-size:40px;font-style:normal;font-weight:normal;fill-opacity:1;stroke:none;font-family:sans-serif;text-anchor:start;fill:#000000' >N</text>
</svg>

<svg height="256" viewBox="0 0 256 256" width="256" xmlns="http://www.w3.org/2000/svg"><path d="m0 0h256v256h-256z" fill="#fff"/><g fill="none" stroke-width="2"><path d="m210.3 95.2-28.8 49.3" stroke="#000"/><path d="m158.6 158.9-59.3-.2" stroke="#000"/><path d="m99.3 158.7-59.4-.3" stroke="#000"/><path d="m99.2 169.7-59.4-.2" stroke="#000"/><path d="m99.3 147.6-59.4-.3" stroke="#000"/><path d="m102.2 158.7h-2.9l-3-.1" stroke="#000" stroke-miterlimit="10"/><path d="m178.39 76.62c-1.395 2.391 1.793 4.25 3.188 1.859s4.583-.531 3.188 1.86c-1.394 2.391 1.794 4.251 3.189 1.859 1.394-2.391 4.583-.531 3.188 1.86s1.794 4.251 3.188 1.859c1.395-2.391 4.583-.531 3.189 1.86-1.395 2.391 1.793 4.251 3.188 1.859 1.395-2.391 4.583-.531 3.188 1.86-1.394 2.391 1.794 4.251 3.189 1.86 1.394-2.392 4.583-.532 3.188 1.859s1.794 4.251 3.188 1.86c1.395-2.392 4.583-.532 3.189 1.859-1.395 2.391 1.793 4.251 3.188 1.86s4.583-.532 3.188 1.859c-1.394 2.392 1.794 4.251 3.189 1.86 1.394-2.391 4.583-.532 3.188 1.859-1.395 2.392 1.794 4.251 3.188 1.86 1.395-2.391 4.583-.532 3.189 1.859-1.395 2.392 1.793 4.251 3.188 1.86s4.583-.532 3.188 1.86" stroke="#7f7f7f"/></g><text font-family="sans-serif" font-size="40" x="161.1" y="179">S</text><text font-family="sans-serif" font-size="40" x="13.4" y="178.3">N</text></svg>
